X: 15157
T: Gigue Des Sucres
R: jig
M: 6/8
K: Gmajor
GG/F/E|:D2 G DGG|DGA B3|c>Bc ABc|e2 d BGE|
D2 G D2 G|DGA B2 B|cBc DEF|1 GBA G2 F/E/:|2 GBA GB/c/d||
|:g2 g fgf|e/f/ge d2 B|c>Bc ABc|BB/c/d e2 f|
gbg f2 d|ece d2 B|cBc DEF|1 GBA GBd:|2 GBA||

